assets/luts/cool_tone.cube
TITLE "Cool Tone - Blue/Cyan Tint"
DOMAIN_MIN 0.0 0.0 0.0
DOMAIN_MAX 1.0 1.0 1.0
LUT_3D_SIZE 8

0.000000 0.000000 0.040000
0.108571 0.000000 0.040000
0.237143 0.000000 0.040000
0.365714 0.000000 0.040000
0.494286 0.000000 0.040000
0.622857 0.000000 0.040000
0.751429 0.000000 0.040000
0.880000 0.000000 0.040000
0.000000 0.138571 0.040000
0.108571 0.138571 0.040000
0.237143 0.138571 0.040000
0.365714 0.138571 0.040000
0.494286 0.138571 0.040000
0.622857 0.138571 0.040000
0.751429 0.138571 0.040000
0.880000 0.138571 0.040000
0.000000 0.277143 0.040000
0.108571 0.277143 0.040000
0.237143 0.277143 0.040000
0.365714 0.277143 0.040000
0.494286 0.277143 0.040000
0.622857 0.277143 0.040000
0.751429 0.277143 0.040000
0.880000 0.277143 0.040000
0.000000 0.415714 0.040000
0.108571 0.415714 0.040000
0.237143 0.415714 0.040000
0.365714 0.415714 0.040000
0.494286 0.415714 0.040000
0.622857 0.415714 0.040000
0.751429 0.415714 0.040000
0.880000 0.415714 0.040000
0.000000 0.554286 0.040000
0.108571 0.554286 0.040000
0.237143 0.554286 0.040000
0.365714 0.554286 0.040000
0.494286 0.554286 0.040000
0.622857 0.554286 0.040000
0.751429 0.554286 0.040000
0.880000 0.554286 0.040000
0.000000 0.692857 0.040000
0.108571 0.692857 0.040000
0.237143 0.692857 0.040000
0.365714 0.692857 0.040000
0.494286 0.692857 0.040000
0.622857 0.692857 0.040000
0.751429 0.692857 0.040000
0.880000 0.692857 0.040000
0.000000 0.831429 0.040000
0.108571 0.831429 0.040000
0.237143 0.831429 0.040000
0.365714 0.831429 0.040000
0.494286 0.831429 0.040000
0.622857 0.831429 0.040000
0.751429 0.831429 0.040000
0.880000 0.831429 0.040000
0.000000 0.970000 0.040000
0.108571 0.970000 0.040000
0.237143 0.970000 0.040000
0.365714 0.970000 0.040000
0.494286 0.970000 0.040000
0.622857 0.970000 0.040000
0.751429 0.970000 0.040000
0.880000 0.970000 0.040000
0.000000 0.000000 0.197143
0.108571 0.000000 0.197143
0.237143 0.000000 0.197143
0.365714 0.000000 0.197143
0.494286 0.000000 0.197143
0.622857 0.000000 0.197143
0.751429 0.000000 0.197143
0.880000 0.000000 0.197143
0.000000 0.138571 0.197143
0.108571 0.138571 0.197143
0.237143 0.138571 0.197143
0.365714 0.138571 0.197143
0.494286 0.138571 0.197143
0.622857 0.138571 0.197143
0.751429 0.138571 0.197143
0.880000 0.138571 0.197143
0.000000 0.277143 0.197143
0.108571 0.277143 0.197143
0.237143 0.277143 0.197143
0.365714 0.277143 0.197143
0.494286 0.277143 0.197143
0.622857 0.277143 0.197143
0.751429 0.277143 0.197143
0.880000 0.277143 0.197143
0.000000 0.415714 0.197143
0.108571 0.415714 0.197143
0.237143 0.415714 0.197143
0.365714 0.415714 0.197143
0.494286 0.415714 0.197143
0.622857 0.415714 0.197143
0.751429 0.415714 0.197143
0.880000 0.415714 0.197143
0.000000 0.554286 0.197143
0.108571 0.554286 0.197143
0.237143 0.554286 0.197143
0.365714 0.554286 0.197143
0.494286 0.554286 0.197143
0.622857 0.554286 0.197143
0.751429 0.554286 0.197143
0.880000 0.554286 0.197143
0.000000 0.692857 0.197143
0.108571 0.692857 0.197143
0.237143 0.692857 0.197143
0.365714 0.692857 0.197143
0.494286 0.692857 0.197143
0.622857 0.692857 0.197143
0.751429 0.692857 0.197143
0.880000 0.692857 0.197143
0.000000 0.831429 0.197143
0.108571 0.831429 0.197143
0.237143 0.831429 0.197143
0.365714 0.831429 0.197143
0.494286 0.831429 0.197143
0.622857 0.831429 0.197143
0.751429 0.831429 0.197143
0.880000 0.831429 0.197143
0.000000 0.970000 0.197143
0.108571 0.970000 0.197143
0.237143 0.970000 0.197143
0.365714 0.970000 0.197143
0.494286 0.970000 0.197143
0.622857 0.970000 0.197143
0.751429 0.970000 0.197143
0.880000 0.970000 0.197143
0.000000 0.000000 0.354286
0.108571 0.000000 0.354286
0.237143 0.000000 0.354286
0.365714 0.000000 0.354286
0.494286 0.000000 0.354286
0.622857 0.000000 0.354286
0.751429 0.000000 0.354286
0.880000 0.000000 0.354286
0.000000 0.138571 0.354286
0.108571 0.138571 0.354286
0.237143 0.138571 0.354286
0.365714 0.138571 0.354286
0.494286 0.138571 0.354286
0.622857 0.138571 0.354286
0.751429 0.138571 0.354286
0.880000 0.138571 0.354286
0.000000 0.277143 0.354286
0.108571 0.277143 0.354286
0.237143 0.277143 0.354286
0.365714 0.277143 0.354286
0.494286 0.277143 0.354286
0.622857 0.277143 0.354286
0.751429 0.277143 0.354286
0.880000 0.277143 0.354286
0.000000 0.415714 0.354286
0.108571 0.415714 0.354286
0.237143 0.415714 0.354286
0.365714 0.415714 0.354286
0.494286 0.415714 0.354286
0.622857 0.415714 0.354286
0.751429 0.415714 0.354286
0.880000 0.415714 0.354286
0.000000 0.554286 0.354286
0.108571 0.554286 0.354286
0.237143 0.554286 0.354286
0.365714 0.554286 0.354286
0.494286 0.554286 0.354286
0.622857 0.554286 0.354286
0.751429 0.554286 0.354286
0.880000 0.554286 0.354286
0.000000 0.692857 0.354286
0.108571 0.692857 0.354286
0.237143 0.692857 0.354286
0.365714 0.692857 0.354286
0.494286 0.692857 0.354286
0.622857 0.692857 0.354286
0.751429 0.692857 0.354286
0.880000 0.692857 0.354286
0.000000 0.831429 0.354286
0.108571 0.831429 0.354286
0.237143 0.831429 0.354286
0.365714 0.831429 0.354286
0.494286 0.831429 0.354286
0.622857 0.831429 0.354286
0.751429 0.831429 0.354286
0.880000 0.831429 0.354286
0.000000 0.970000 0.354286
0.108571 0.970000 0.354286
0.237143 0.970000 0.354286
0.365714 0.970000 0.354286
0.494286 0.970000 0.354286
0.622857 0.970000 0.354286
0.751429 0.970000 0.354286
0.880000 0.970000 0.354286
0.000000 0.000000 0.511429
0.108571 0.000000 0.511429
0.237143 0.000000 0.511429
0.365714 0.000000 0.511429
0.494286 0.000000 0.511429
0.622857 0.000000 0.511429
0.751429 0.000000 0.511429
0.880000 0.000000 0.511429
0.000000 0.138571 0.511429
0.108571 0.138571 0.511429
0.237143 0.138571 0.511429
0.365714 0.138571 0.511429
0.494286 0.138571 0.511429
0.622857 0.138571 0.511429
0.751429 0.138571 0.511429
0.880000 0.138571 0.511429
0.000000 0.277143 0.511429
0.108571 0.277143 0.511429
0.237143 0.277143 0.511429
0.365714 0.277143 0.511429
0.494286 0.277143 0.511429
0.622857 0.277143 0.511429
0.751429 0.277143 0.511429
0.880000 0.277143 0.511429
0.000000 0.415714 0.511429
0.108571 0.415714 0.511429
0.237143 0.415714 0.511429
0.365714 0.415714 0.511429
0.494286 0.415714 0.511429
0.622857 0.415714 0.511429
0.751429 0.415714 0.511429
0.880000 0.415714 0.511429
0.000000 0.554286 0.511429
0.108571 0.554286 0.511429
0.237143 0.554286 0.511429
0.365714 0.554286 0.511429
0.494286 0.554286 0.511429
0.622857 0.554286 0.511429
0.751429 0.554286 0.511429
0.880000 0.554286 0.511429
0.000000 0.692857 0.511429
0.108571 0.692857 0.511429
0.237143 0.692857 0.511429
0.365714 0.692857 0.511429
0.494286 0.692857 0.511429
0.622857 0.692857 0.511429
0.751429 0.692857 0.511429
0.880000 0.692857 0.511429
0.000000 0.831429 0.511429
0.108571 0.831429 0.511429
0.237143 0.831429 0.511429
0.365714 0.831429 0.511429
0.494286 0.831429 0.511429
0.622857 0.831429 0.511429
0.751429 0.831429 0.511429
0.880000 0.831429 0.511429
0.000000 0.970000 0.511429
0.108571 0.970000 0.511429
0.237143 0.970000 0.511429
0.365714 0.970000 0.511429
0.494286 0.970000 0.511429
0.622857 0.970000 0.511429
0.751429 0.970000 0.511429
0.880000 0.970000 0.511429
0.000000 0.000000 0.668571
0.108571 0.000000 0.668571
0.237143 0.000000 0.668571
0.365714 0.000000 0.668571
0.494286 0.000000 0.668571
0.622857 0.000000 0.668571
0.751429 0.000000 0.668571
0.880000 0.000000 0.668571
0.000000 0.138571 0.668571
0.108571 0.138571 0.668571
0.237143 0.138571 0.668571
0.365714 0.138571 0.668571
0.494286 0.138571 0.668571
0.622857 0.138571 0.668571
0.751429 0.138571 0.668571
0.880000 0.138571 0.668571
0.000000 0.277143 0.668571
0.108571 0.277143 0.668571
0.237143 0.277143 0.668571
0.365714 0.277143 0.668571
0.494286 0.277143 0.668571
0.622857 0.277143 0.668571
0.751429 0.277143 0.668571
0.880000 0.277143 0.668571
0.000000 0.415714 0.668571
0.108571 0.415714 0.668571
0.237143 0.415714 0.668571
0.365714 0.415714 0.668571
0.494286 0.415714 0.668571
0.622857 0.415714 0.668571
0.751429 0.415714 0.668571
0.880000 0.415714 0.668571
0.000000 0.554286 0.668571
0.108571 0.554286 0.668571
0.237143 0.554286 0.668571
0.365714 0.554286 0.668571
0.494286 0.554286 0.668571
0.622857 0.554286 0.668571
0.751429 0.554286 0.668571
0.880000 0.554286 0.668571
0.000000 0.692857 0.668571
0.108571 0.692857 0.668571
0.237143 0.692857 0.668571
0.365714 0.692857 0.668571
0.494286 0.692857 0.668571
0.622857 0.692857 0.668571
0.751429 0.692857 0.668571
0.880000 0.692857 0.668571
0.000000 0.831429 0.668571
0.108571 0.831429 0.668571
0.237143 0.831429 0.668571
0.365714 0.831429 0.668571
0.494286 0.831429 0.668571
0.622857 0.831429 0.668571
0.751429 0.831429 0.668571
0.880000 0.831429 0.668571
0.000000 0.970000 0.668571
0.108571 0.970000 0.668571
0.237143 0.970000 0.668571
0.365714 0.970000 0.668571
0.494286 0.970000 0.668571
0.622857 0.970000 0.668571
0.751429 0.970000 0.668571
0.880000 0.970000 0.668571
0.000000 0.000000 0.825714
0.108571 0.000000 0.825714
0.237143 0.000000 0.825714
0.365714 0.000000 0.825714
0.494286 0.000000 0.825714
0.622857 0.000000 0.825714
0.751429 0.000000 0.825714
0.880000 0.000000 0.825714
0.000000 0.138571 0.825714
0.108571 0.138571 0.825714
0.237143 0.138571 0.825714
0.365714 0.138571 0.825714
0.494286 0.138571 0.825714
0.622857 0.138571 0.825714
0.751429 0.138571 0.825714
0.880000 0.138571 0.825714
0.000000 0.277143 0.825714
0.108571 0.277143 0.825714
0.237143 0.277143 0.825714
0.365714 0.277143 0.825714
0.494286 0.277143 0.825714
0.622857 0.277143 0.825714
0.751429 0.277143 0.825714
0.880000 0.277143 0.825714
0.000000 0.415714 0.825714
0.108571 0.415714 0.825714
0.237143 0.415714 0.825714
0.365714 0.415714 0.825714
0.494286 0.415714 0.825714
0.622857 0.415714 0.825714
0.751429 0.415714 0.825714
0.880000 0.415714 0.825714
0.000000 0.554286 0.825714
0.108571 0.554286 0.825714
0.237143 0.554286 0.825714
0.365714 0.554286 0.825714
0.494286 0.554286 0.825714
0.622857 0.554286 0.825714
0.751429 0.554286 0.825714
0.880000 0.554286 0.825714
0.000000 0.692857 0.825714
0.108571 0.692857 0.825714
0.237143 0.692857 0.825714
0.365714 0.692857 0.825714
0.494286 0.692857 0.825714
0.622857 0.692857 0.825714
0.751429 0.692857 0.825714
0.880000 0.692857 0.825714
0.000000 0.831429 0.825714
0.108571 0.831429 0.825714
0.237143 0.831429 0.825714
0.365714 0.831429 0.825714
0.494286 0.831429 0.825714
0.622857 0.831429 0.825714
0.751429 0.831429 0.825714
0.880000 0.831429 0.825714
0.000000 0.970000 0.825714
0.108571 0.970000 0.825714
0.237143 0.970000 0.825714
0.365714 0.970000 0.825714
0.494286 0.970000 0.825714
0.622857 0.970000 0.825714
0.751429 0.970000 0.825714
0.880000 0.970000 0.825714
0.000000 0.000000 0.982857
0.108571 0.000000 0.982857
0.237143 0.000000 0.982857
0.365714 0.000000 0.982857
0.494286 0.000000 0.982857
0.622857 0.000000 0.982857
0.751429 0.000000 0.982857
0.880000 0.000000 0.982857
0.000000 0.138571 0.982857
0.108571 0.138571 0.982857
0.237143 0.138571 0.982857
0.365714 0.138571 0.982857
0.494286 0.138571 0.982857
0.622857 0.138571 0.982857
0.751429 0.138571 0.982857
0.880000 0.138571 0.982857
0.000000 0.277143 0.982857
0.108571 0.277143 0.982857
0.237143 0.277143 0.982857
0.365714 0.277143 0.982857
0.494286 0.277143 0.982857
0.622857 0.277143 0.982857
0.751429 0.277143 0.982857
0.880000 0.277143 0.982857
0.000000 0.415714 0.982857
0.108571 0.415714 0.982857
0.237143 0.415714 0.982857
0.365714 0.415714 0.982857
0.494286 0.415714 0.982857
0.622857 0.415714 0.982857
0.751429 0.415714 0.982857
0.880000 0.415714 0.982857
0.000000 0.554286 0.982857
0.108571 0.554286 0.982857
0.237143 0.554286 0.982857
0.365714 0.554286 0.982857
0.494286 0.554286 0.982857
0.622857 0.554286 0.982857
0.751429 0.554286 0.982857
0.880000 0.554286 0.982857
0.000000 0.692857 0.982857
0.108571 0.692857 0.982857
0.237143 0.692857 0.982857
0.365714 0.692857 0.982857
0.494286 0.692857 0.982857
0.622857 0.692857 0.982857
0.751429 0.692857 0.982857
0.880000 0.692857 0.982857
0.000000 0.831429 0.982857
0.108571 0.831429 0.982857
0.237143 0.831429 0.982857
0.365714 0.831429 0.982857
0.494286 0.831429 0.982857
0.622857 0.831429 0.982857
0.751429 0.831429 0.982857
0.880000 0.831429 0.982857
0.000000 0.970000 0.982857
0.108571 0.970000 0.982857
0.237143 0.970000 0.982857
0.365714 0.970000 0.982857
0.494286 0.970000 0.982857
0.622857 0.970000 0.982857
0.751429 0.970000 0.982857
0.880000 0.970000 0.982857
0.000000 0.000000 1.000000
0.108571 0.000000 1.000000
0.237143 0.000000 1.000000
0.365714 0.000000 1.000000
0.494286 0.000000 1.000000
0.622857 0.000000 1.000000
0.751429 0.000000 1.000000
0.880000 0.000000 1.000000
0.000000 0.138571 1.000000
0.108571 0.138571 1.000000
0.237143 0.138571 1.000000
0.365714 0.138571 1.000000
0.494286 0.138571 1.000000
0.622857 0.138571 1.000000
0.751429 0.138571 1.000000
0.880000 0.138571 1.000000
0.000000 0.277143 1.000000
0.108571 0.277143 1.000000
0.237143 0.277143 1.000000
0.365714 0.277143 1.000000
0.494286 0.277143 1.000000
0.622857 0.277143 1.000000
0.751429 0.277143 1.000000
0.880000 0.277143 1.000000
0.000000 0.415714 1.000000
0.108571 0.415714 1.000000
0.237143 0.415714 1.000000
0.365714 0.415714 1.000000
0.494286 0.415714 1.000000
0.622857 0.415714 1.000000
0.751429 0.415714 1.000000
0.880000 0.415714 1.000000
0.000000 0.554286 1.000000
0.108571 0.554286 1.000000
0.237143 0.554286 1.000000
0.365714 0.554286 1.000000
0.494286 0.554286 1.000000
0.622857 0.554286 1.000000
0.751429 0.554286 1.000000
0.880000 0.554286 1.000000
0.000000 0.692857 1.000000
0.108571 0.692857 1.000000
0.237143 0.692857 1.000000
0.365714 0.692857 1.000000
0.494286 0.692857 1.000000
0.622857 0.692857 1.000000
0.751429 0.692857 1.000000
0.880000 0.692857 1.000000
0.000000 0.831429 1.000000
0.108571 0.831429 1.000000
0.237143 0.831429 1.000000
0.365714 0.831429 1.000000
0.494286 0.831429 1.000000
0.622857 0.831429 1.000000
0.751429 0.831429 1.000000
0.880000 0.831429 1.000000
0.000000 0.970000 1.000000
0.108571 0.970000 1.000000
0.237143 0.970000 1.000000
0.365714 0.970000 1.000000
0.494286 0.970000 1.000000
0.622857 0.970000 1.000000
0.751429 0.970000 1.000000
0.880000 0.970000 1.000000
