assets/luts/film_look.cube
TITLE "Film Look - S-Curve Contrast"
DOMAIN_MIN 0.0 0.0 0.0
DOMAIN_MAX 1.0 1.0 1.0
LUT_3D_SIZE 8

0.002778 0.002699 0.012593
0.075706 0.002699 0.012593
0.224913 0.002699 0.012593
0.419886 0.002699 0.012593
0.630114 0.002699 0.012593
0.825087 0.002699 0.012593
0.974294 0.002699 0.012593
1.000000 0.002699 0.012593
0.002778 0.073543 0.012593
0.075706 0.073543 0.012593
0.224913 0.073543 0.012593
0.419886 0.073543 0.012593
0.630114 0.073543 0.012593
0.825087 0.073543 0.012593
0.974294 0.073543 0.012593
1.000000 0.073543 0.012593
0.002778 0.218487 0.012593
0.075706 0.218487 0.012593
0.224913 0.218487 0.012593
0.419886 0.218487 0.012593
0.630114 0.218487 0.012593
0.825087 0.218487 0.012593
0.974294 0.218487 0.012593
1.000000 0.218487 0.012593
0.002778 0.407889 0.012593
0.075706 0.407889 0.012593
0.224913 0.407889 0.012593
0.419886 0.407889 0.012593
0.630114 0.407889 0.012593
0.825087 0.407889 0.012593
0.974294 0.407889 0.012593
1.000000 0.407889 0.012593
0.002778 0.612111 0.012593
0.075706 0.612111 0.012593
0.224913 0.612111 0.012593
0.419886 0.612111 0.012593
0.630114 0.612111 0.012593
0.825087 0.612111 0.012593
0.974294 0.612111 0.012593
1.000000 0.612111 0.012593
0.002778 0.801513 0.012593
0.075706 0.801513 0.012593
0.224913 0.801513 0.012593
0.419886 0.801513 0.012593
0.630114 0.801513 0.012593
0.825087 0.801513 0.012593
0.974294 0.801513 0.012593
1.000000 0.801513 0.012593
0.002778 0.946457 0.012593
0.075706 0.946457 0.012593
0.224913 0.946457 0.012593
0.419886 0.946457 0.012593
0.630114 0.946457 0.012593
0.825087 0.946457 0.012593
0.974294 0.946457 0.012593
1.000000 0.946457 0.012593
0.002778 1.000000 0.012593
0.075706 1.000000 0.012593
0.224913 1.000000 0.012593
0.419886 1.000000 0.012593
0.630114 1.000000 0.012593
0.825087 1.000000 0.012593
0.974294 1.000000 0.012593
1.000000 1.000000 0.012593
0.002778 0.002699 0.080659
0.075706 0.002699 0.080659
0.224913 0.002699 0.080659
0.419886 0.002699 0.080659
0.630114 0.002699 0.080659
0.825087 0.002699 0.080659
0.974294 0.002699 0.080659
1.000000 0.002699 0.080659
0.002778 0.073543 0.080659
0.075706 0.073543 0.080659
0.224913 0.073543 0.080659
0.419886 0.073543 0.080659
0.630114 0.073543 0.080659
0.825087 0.073543 0.080659
0.974294 0.073543 0.080659
1.000000 0.073543 0.080659
0.002778 0.218487 0.080659
0.075706 0.218487 0.080659
0.224913 0.218487 0.080659
0.419886 0.218487 0.080659
0.630114 0.218487 0.080659
0.825087 0.218487 0.080659
0.974294 0.218487 0.080659
1.000000 0.218487 0.080659
0.002778 0.407889 0.080659
0.075706 0.407889 0.080659
0.224913 0.407889 0.080659
0.419886 0.407889 0.080659
0.630114 0.407889 0.080659
0.825087 0.407889 0.080659
0.974294 0.407889 0.080659
1.000000 0.407889 0.080659
0.002778 0.612111 0.080659
0.075706 0.612111 0.080659
0.224913 0.612111 0.080659
0.419886 0.612111 0.080659
0.630114 0.612111 0.080659
0.825087 0.612111 0.080659
0.974294 0.612111 0.080659
1.000000 0.612111 0.080659
0.002778 0.801513 0.080659
0.075706 0.801513 0.080659
0.224913 0.801513 0.080659
0.419886 0.801513 0.080659
0.630114 0.801513 0.080659
0.825087 0.801513 0.080659
0.974294 0.801513 0.080659
1.000000 0.801513 0.080659
0.002778 0.946457 0.080659
0.075706 0.946457 0.080659
0.224913 0.946457 0.080659
0.419886 0.946457 0.080659
0.630114 0.946457 0.080659
0.825087 0.946457 0.080659
0.974294 0.946457 0.080659
1.000000 0.946457 0.080659
0.002778 1.000000 0.080659
0.075706 1.000000 0.080659
0.224913 1.000000 0.080659
0.419886 1.000000 0.080659
0.630114 1.000000 0.080659
0.825087 1.000000 0.080659
0.974294 1.000000 0.080659
1.000000 1.000000 0.080659
0.002778 0.002699 0.219918
0.075706 0.002699 0.219918
0.224913 0.002699 0.219918
0.419886 0.002699 0.219918
0.630114 0.002699 0.219918
0.825087 0.002699 0.219918
0.974294 0.002699 0.219918
1.000000 0.002699 0.219918
0.002778 0.073543 0.219918
0.075706 0.073543 0.219918
0.224913 0.073543 0.219918
0.419886 0.073543 0.219918
0.630114 0.073543 0.219918
0.825087 0.073543 0.219918
0.974294 0.073543 0.219918
1.000000 0.073543 0.219918
0.002778 0.218487 0.219918
0.075706 0.218487 0.219918
0.224913 0.218487 0.219918
0.419886 0.218487 0.219918
0.630114 0.218487 0.219918
0.825087 0.218487 0.219918
0.974294 0.218487 0.219918
1.000000 0.218487 0.219918
0.002778 0.407889 0.219918
0.075706 0.407889 0.219918
0.224913 0.407889 0.219918
0.419886 0.407889 0.219918
0.630114 0.407889 0.219918
0.825087 0.407889 0.219918
0.974294 0.407889 0.219918
1.000000 0.407889 0.219918
0.002778 0.612111 0.219918
0.075706 0.612111 0.219918
0.224913 0.612111 0.219918
0.419886 0.612111 0.219918
0.630114 0.612111 0.219918
0.825087 0.612111 0.219918
0.974294 0.612111 0.219918
1.000000 0.612111 0.219918
0.002778 0.801513 0.219918
0.075706 0.801513 0.219918
0.224913 0.801513 0.219918
0.419886 0.801513 0.219918
0.630114 0.801513 0.219918
0.825087 0.801513 0.219918
0.974294 0.801513 0.219918
1.000000 0.801513 0.219918
0.002778 0.946457 0.219918
0.075706 0.946457 0.219918
0.224913 0.946457 0.219918
0.419886 0.946457 0.219918
0.630114 0.946457 0.219918
0.825087 0.946457 0.219918
0.974294 0.946457 0.219918
1.000000 0.946457 0.219918
0.002778 1.000000 0.219918
0.075706 1.000000 0.219918
0.224913 1.000000 0.219918
0.419886 1.000000 0.219918
0.630114 1.000000 0.219918
0.825087 1.000000 0.219918
0.974294 1.000000 0.219918
1.000000 1.000000 0.219918
0.002778 0.002699 0.401893
0.075706 0.002699 0.401893
0.224913 0.002699 0.401893
0.419886 0.002699 0.401893
0.630114 0.002699 0.401893
0.825087 0.002699 0.401893
0.974294 0.002699 0.401893
1.000000 0.002699 0.401893
0.002778 0.073543 0.401893
0.075706 0.073543 0.401893
0.224913 0.073543 0.401893
0.419886 0.073543 0.401893
0.630114 0.073543 0.401893
0.825087 0.073543 0.401893
0.974294 0.073543 0.401893
1.000000 0.073543 0.401893
0.002778 0.218487 0.401893
0.075706 0.218487 0.401893
0.224913 0.218487 0.401893
0.419886 0.218487 0.401893
0.630114 0.218487 0.401893
0.825087 0.218487 0.401893
0.974294 0.218487 0.401893
1.000000 0.218487 0.401893
0.002778 0.407889 0.401893
0.075706 0.407889 0.401893
0.224913 0.407889 0.401893
0.419886 0.407889 0.401893
0.630114 0.407889 0.401893
0.825087 0.407889 0.401893
0.974294 0.407889 0.401893
1.000000 0.407889 0.401893
0.002778 0.612111 0.401893
0.075706 0.612111 0.401893
0.224913 0.612111 0.401893
0.419886 0.612111 0.401893
0.630114 0.612111 0.401893
0.825087 0.612111 0.401893
0.974294 0.612111 0.401893
1.000000 0.612111 0.401893
0.002778 0.801513 0.401893
0.075706 0.801513 0.401893
0.224913 0.801513 0.401893
0.419886 0.801513 0.401893
0.630114 0.801513 0.401893
0.825087 0.801513 0.401893
0.974294 0.801513 0.401893
1.000000 0.801513 0.401893
0.002778 0.946457 0.401893
0.075706 0.946457 0.401893
0.224913 0.946457 0.401893
0.419886 0.946457 0.401893
0.630114 0.946457 0.401893
0.825087 0.946457 0.401893
0.974294 0.946457 0.401893
1.000000 0.946457 0.401893
0.002778 1.000000 0.401893
0.075706 1.000000 0.401893
0.224913 1.000000 0.401893
0.419886 1.000000 0.401893
0.630114 1.000000 0.401893
0.825087 1.000000 0.401893
0.974294 1.000000 0.401893
1.000000 1.000000 0.401893
0.002778 0.002699 0.598107
0.075706 0.002699 0.598107
0.224913 0.002699 0.598107
0.419886 0.002699 0.598107
0.630114 0.002699 0.598107
0.825087 0.002699 0.598107
0.974294 0.002699 0.598107
1.000000 0.002699 0.598107
0.002778 0.073543 0.598107
0.075706 0.073543 0.598107
0.224913 0.073543 0.598107
0.419886 0.073543 0.598107
0.630114 0.073543 0.598107
0.825087 0.073543 0.598107
0.974294 0.073543 0.598107
1.000000 0.073543 0.598107
0.002778 0.218487 0.598107
0.075706 0.218487 0.598107
0.224913 0.218487 0.598107
0.419886 0.218487 0.598107
0.630114 0.218487 0.598107
0.825087 0.218487 0.598107
0.974294 0.218487 0.598107
1.000000 0.218487 0.598107
0.002778 0.407889 0.598107
0.075706 0.407889 0.598107
0.224913 0.407889 0.598107
0.419886 0.407889 0.598107
0.630114 0.407889 0.598107
0.825087 0.407889 0.598107
0.974294 0.407889 0.598107
1.000000 0.407889 0.598107
0.002778 0.612111 0.598107
0.075706 0.612111 0.598107
0.224913 0.612111 0.598107
0.419886 0.612111 0.598107
0.630114 0.612111 0.598107
0.825087 0.612111 0.598107
0.974294 0.612111 0.598107
1.000000 0.612111 0.598107
0.002778 0.801513 0.598107
0.075706 0.801513 0.598107
0.224913 0.801513 0.598107
0.419886 0.801513 0.598107
0.630114 0.801513 0.598107
0.825087 0.801513 0.598107
0.974294 0.801513 0.598107
1.000000 0.801513 0.598107
0.002778 0.946457 0.598107
0.075706 0.946457 0.598107
0.224913 0.946457 0.598107
0.419886 0.946457 0.598107
0.630114 0.946457 0.598107
0.825087 0.946457 0.598107
0.974294 0.946457 0.598107
1.000000 0.946457 0.598107
0.002778 1.000000 0.598107
0.075706 1.000000 0.598107
0.224913 1.000000 0.598107
0.419886 1.000000 0.598107
0.630114 1.000000 0.598107
0.825087 1.000000 0.598107
0.974294 1.000000 0.598107
1.000000 1.000000 0.598107
0.002778 0.002699 0.780082
0.075706 0.002699 0.780082
0.224913 0.002699 0.780082
0.419886 0.002699 0.780082
0.630114 0.002699 0.780082
0.825087 0.002699 0.780082
0.974294 0.002699 0.780082
1.000000 0.002699 0.780082
0.002778 0.073543 0.780082
0.075706 0.073543 0.780082
0.224913 0.073543 0.780082
0.419886 0.073543 0.780082
0.630114 0.073543 0.780082
0.825087 0.073543 0.780082
0.974294 0.073543 0.780082
1.000000 0.073543 0.780082
0.002778 0.218487 0.780082
0.075706 0.218487 0.780082
0.224913 0.218487 0.780082
0.419886 0.218487 0.780082
0.630114 0.218487 0.780082
0.825087 0.218487 0.780082
0.974294 0.218487 0.780082
1.000000 0.218487 0.780082
0.002778 0.407889 0.780082
0.075706 0.407889 0.780082
0.224913 0.407889 0.780082
0.419886 0.407889 0.780082
0.630114 0.407889 0.780082
0.825087 0.407889 0.780082
0.974294 0.407889 0.780082
1.000000 0.407889 0.780082
0.002778 0.612111 0.780082
0.075706 0.612111 0.780082
0.224913 0.612111 0.780082
0.419886 0.612111 0.780082
0.630114 0.612111 0.780082
0.825087 0.612111 0.780082
0.974294 0.612111 0.780082
1.000000 0.612111 0.780082
0.002778 0.801513 0.780082
0.075706 0.801513 0.780082
0.224913 0.801513 0.780082
0.419886 0.801513 0.780082
0.630114 0.801513 0.780082
0.825087 0.801513 0.780082
0.974294 0.801513 0.780082
1.000000 0.801513 0.780082
0.002778 0.946457 0.780082
0.075706 0.946457 0.780082
0.224913 0.946457 0.780082
0.419886 0.946457 0.780082
0.630114 0.946457 0.780082
0.825087 0.946457 0.780082
0.974294 0.946457 0.780082
1.000000 0.946457 0.780082
0.002778 1.000000 0.780082
0.075706 1.000000 0.780082
0.224913 1.000000 0.780082
0.419886 1.000000 0.780082
0.630114 1.000000 0.780082
0.825087 1.000000 0.780082
0.974294 1.000000 0.780082
1.000000 1.000000 0.780082
0.002778 0.002699 0.919341
0.075706 0.002699 0.919341
0.224913 0.002699 0.919341
0.419886 0.002699 0.919341
0.630114 0.002699 0.919341
0.825087 0.002699 0.919341
0.974294 0.002699 0.919341
1.000000 0.002699 0.919341
0.002778 0.073543 0.919341
0.075706 0.073543 0.919341
0.224913 0.073543 0.919341
0.419886 0.073543 0.919341
0.630114 0.073543 0.919341
0.825087 0.073543 0.919341
0.974294 0.073543 0.919341
1.000000 0.073543 0.919341
0.002778 0.218487 0.919341
0.075706 0.218487 0.919341
0.224913 0.218487 0.919341
0.419886 0.218487 0.919341
0.630114 0.218487 0.919341
0.825087 0.218487 0.919341
0.974294 0.218487 0.919341
1.000000 0.218487 0.919341
0.002778 0.407889 0.919341
0.075706 0.407889 0.919341
0.224913 0.407889 0.919341
0.419886 0.407889 0.919341
0.630114 0.407889 0.919341
0.825087 0.407889 0.919341
0.974294 0.407889 0.919341
1.000000 0.407889 0.919341
0.002778 0.612111 0.919341
0.075706 0.612111 0.919341
0.224913 0.612111 0.919341
0.419886 0.612111 0.919341
0.630114 0.612111 0.919341
0.825087 0.612111 0.919341
0.974294 0.612111 0.919341
1.000000 0.612111 0.919341
0.002778 0.801513 0.919341
0.075706 0.801513 0.919341
0.224913 0.801513 0.919341
0.419886 0.801513 0.919341
0.630114 0.801513 0.919341
0.825087 0.801513 0.919341
0.974294 0.801513 0.919341
1.000000 0.801513 0.919341
0.002778 0.946457 0.919341
0.075706 0.946457 0.919341
0.224913 0.946457 0.919341
0.419886 0.946457 0.919341
0.630114 0.946457 0.919341
0.825087 0.946457 0.919341
0.974294 0.946457 0.919341
1.000000 0.946457 0.919341
0.002778 1.000000 0.919341
0.075706 1.000000 0.919341
0.224913 1.000000 0.919341
0.419886 1.000000 0.919341
0.630114 1.000000 0.919341
0.825087 1.000000 0.919341
0.974294 1.000000 0.919341
1.000000 1.000000 0.919341
0.002778 0.002699 0.987407
0.075706 0.002699 0.987407
0.224913 0.002699 0.987407
0.419886 0.002699 0.987407
0.630114 0.002699 0.987407
0.825087 0.002699 0.987407
0.974294 0.002699 0.987407
1.000000 0.002699 0.987407
0.002778 0.073543 0.987407
0.075706 0.073543 0.987407
0.224913 0.073543 0.987407
0.419886 0.073543 0.987407
0.630114 0.073543 0.987407
0.825087 0.073543 0.987407
0.974294 0.073543 0.987407
1.000000 0.073543 0.987407
0.002778 0.218487 0.987407
0.075706 0.218487 0.987407
0.224913 0.218487 0.987407
0.419886 0.218487 0.987407
0.630114 0.218487 0.987407
0.825087 0.218487 0.987407
0.974294 0.218487 0.987407
1.000000 0.218487 0.987407
0.002778 0.407889 0.987407
0.075706 0.407889 0.987407
0.224913 0.407889 0.987407
0.419886 0.407889 0.987407
0.630114 0.407889 0.987407
0.825087 0.407889 0.987407
0.974294 0.407889 0.987407
1.000000 0.407889 0.987407
0.002778 0.612111 0.987407
0.075706 0.612111 0.987407
0.224913 0.612111 0.987407
0.419886 0.612111 0.987407
0.630114 0.612111 0.987407
0.825087 0.612111 0.987407
0.974294 0.612111 0.987407
1.000000 0.612111 0.987407
0.002778 0.801513 0.987407
0.075706 0.801513 0.987407
0.224913 0.801513 0.987407
0.419886 0.801513 0.987407
0.630114 0.801513 0.987407
0.825087 0.801513 0.987407
0.974294 0.801513 0.987407
1.000000 0.801513 0.987407
0.002778 0.946457 0.987407
0.075706 0.946457 0.987407
0.224913 0.946457 0.987407
0.419886 0.946457 0.987407
0.630114 0.946457 0.987407
0.825087 0.946457 0.987407
0.974294 0.946457 0.987407
1.000000 0.946457 0.987407
0.002778 1.000000 0.987407
0.075706 1.000000 0.987407
0.224913 1.000000 0.987407
0.419886 1.000000 0.987407
0.630114 1.000000 0.987407
0.825087 1.000000 0.987407
0.974294 1.000000 0.987407
1.000000 1.000000 0.987407
