assets/luts/teal_orange.cube
TITLE "Teal & Orange - Cinematic"
DOMAIN_MIN 0.0 0.0 0.0
DOMAIN_MAX 1.0 1.0 1.0
LUT_3D_SIZE 8

0.000000 0.000000 0.000000
0.123641 0.000000 0.000000
0.249279 0.000000 0.000000
0.376912 0.000000 0.000000
0.506540 0.000000 0.000000
0.638165 0.000000 0.000000
0.771786 0.000000 0.000000
0.907402 0.000000 0.000000
0.004087 0.144693 0.000000
0.131085 0.144389 0.000000
0.260080 0.144085 0.000000
0.391070 0.143781 0.000000
0.524056 0.143478 0.000000
0.659037 0.143174 0.000000
0.796015 0.142870 0.000000
0.934988 0.142567 0.000000
0.008174 0.289385 0.000000
0.138529 0.289081 0.000000
0.270880 0.288778 0.000000
0.405228 0.288474 0.000000
0.541571 0.288170 0.000000
0.679909 0.287867 0.000000
0.820244 0.287563 0.000000
0.962575 0.287259 0.000000
0.012261 0.434078 0.000000
0.145973 0.433774 0.000000
0.281681 0.433470 0.000000
0.419386 0.433167 0.000000
0.559086 0.432863 0.000000
0.700782 0.432559 0.000000
0.844473 0.432255 0.000000
0.990161 0.431952 0.000000
0.016347 0.578770 0.000000
0.153417 0.578467 0.000000
0.292482 0.578163 0.000000
0.433544 0.577859 0.000000
0.576601 0.577555 0.000000
0.721654 0.577252 0.000000
0.868703 0.576948 0.000000
1.000000 0.576644 0.000000
0.020434 0.723463 0.000000
0.160861 0.723159 0.000000
0.303283 0.722855 0.000000
0.447702 0.722552 0.000000
0.594116 0.722248 0.000000
0.742526 0.721944 0.000000
0.892932 0.721641 0.000000
1.000000 0.721337 0.000000
0.024521 0.868155 0.000000
0.168305 0.867852 0.000000
0.314084 0.867548 0.000000
0.461860 0.867244 0.000000
0.611631 0.866941 0.000000
0.763398 0.866637 0.000000
0.917161 0.866333 0.000000
1.000000 0.866029 0.000000
0.028608 1.000000 0.000000
0.175749 1.000000 0.000000
0.324885 1.000000 0.000000
0.476018 1.000000 0.000000
0.629146 1.000000 0.000000
0.784270 1.000000 0.000000
0.941390 1.000000 0.000000
1.000000 1.000000 0.000000
0.000413 0.000000 0.159249
0.124393 0.000000 0.157036
0.250369 0.000000 0.154823
0.378341 0.000000 0.152610
0.508309 0.000000 0.150397
0.640272 0.000000 0.148185
0.774232 0.000000 0.145972
0.910187 0.000000 0.143759
0.004499 0.144589 0.151805
0.131837 0.144286 0.149592
0.261170 0.143982 0.147379
0.392499 0.143678 0.145166
0.525824 0.143375 0.142954
0.661144 0.143071 0.140741
0.798461 0.142767 0.138528
0.937773 0.142463 0.136315
0.008586 0.289282 0.144361
0.139281 0.288978 0.142148
0.271971 0.288675 0.139935
0.406657 0.288371 0.137722
0.543339 0.288067 0.135510
0.682016 0.287763 0.133297
0.822690 0.287460 0.131084
0.965359 0.287156 0.128871
0.012673 0.433975 0.136917
0.146725 0.433671 0.134704
0.282772 0.433367 0.132491
0.420815 0.433063 0.130278
0.560854 0.432760 0.128066
0.702889 0.432456 0.125853
0.846919 0.432152 0.123640
0.992946 0.431849 0.121427
0.016760 0.578667 0.129473
0.154168 0.578363 0.127260
0.293573 0.578060 0.125047
0.434973 0.577756 0.122835
0.578369 0.577452 0.120622
0.723761 0.577149 0.118409
0.871148 0.576845 0.116196
1.000000 0.576541 0.113983
0.020847 0.723360 0.122029
0.161612 0.723056 0.119816
0.304374 0.722752 0.117603
0.449131 0.722449 0.115391
0.595884 0.722145 0.113178
0.744633 0.721841 0.110965
0.895378 0.721537 0.108752
1.000000 0.721234 0.106540
0.024934 0.868052 0.114585
0.169056 0.867749 0.112372
0.315175 0.867445 0.110159
0.463289 0.867141 0.107947
0.613399 0.866837 0.105734
0.765505 0.866534 0.103521
0.919607 0.866230 0.101308
1.000000 0.865926 0.099096
0.029021 1.000000 0.107141
0.176500 1.000000 0.104928
0.325976 1.000000 0.102716
0.477447 1.000000 0.100503
0.630914 1.000000 0.098290
0.786377 1.000000 0.096077
0.943836 1.000000 0.093864
1.000000 1.000000 0.091652
0.000825 0.000000 0.317613
0.125144 0.000000 0.314099
0.251459 0.000000 0.310584
0.379770 0.000000 0.307070
0.510077 0.000000 0.303555
0.642379 0.000000 0.300041
0.776678 0.000000 0.296527
0.912972 0.000000 0.293012
0.004912 0.144486 0.305790
0.132588 0.144183 0.302276
0.262260 0.143879 0.298761
0.393928 0.143575 0.295247
0.527592 0.143271 0.291733
0.663251 0.142968 0.288218
0.800907 0.142664 0.284704
0.940558 0.142360 0.281189
0.008999 0.289179 0.293968
0.140032 0.288875 0.290453
0.273061 0.288571 0.286939
0.408086 0.288268 0.283424
0.545107 0.287964 0.279910
0.684124 0.287660 0.276396
0.825136 0.287357 0.272881
0.968144 0.287053 0.269367
0.013086 0.433871 0.282145
0.147476 0.433568 0.278630
0.283862 0.433264 0.275116
0.422244 0.432960 0.271602
0.562622 0.432657 0.268087
0.704996 0.432353 0.264573
0.849365 0.432049 0.261058
0.995731 0.431745 0.257544
0.017173 0.578564 0.270322
0.154920 0.578260 0.266808
0.294663 0.577957 0.263293
0.436402 0.577653 0.259779
0.580137 0.577349 0.256265
0.725868 0.577045 0.252750
0.873594 0.576742 0.249236
1.000000 0.576438 0.245721
0.021259 0.723257 0.258500
0.162364 0.722953 0.254985
0.305464 0.722649 0.251471
0.450560 0.722345 0.247956
0.597652 0.722042 0.244442
0.746740 0.721738 0.240927
0.897824 0.721434 0.237413
1.000000 0.721131 0.233899
0.025346 0.867949 0.246677
0.169808 0.867645 0.243162
0.316265 0.867342 0.239648
0.464718 0.867038 0.236134
0.615167 0.866734 0.232619
0.767612 0.866431 0.229105
0.922053 0.866127 0.225590
1.000000 0.865823 0.222076
0.029433 1.000000 0.234854
0.177252 1.000000 0.231340
0.327066 1.000000 0.227825
0.478876 1.000000 0.224311
0.632682 1.000000 0.220796
0.788484 1.000000 0.217282
0.946282 1.000000 0.213768
1.000000 1.000000 0.210253
0.001238 0.000000 0.475093
0.125896 0.000000 0.470277
0.252550 0.000000 0.465461
0.381199 0.000000 0.460645
0.511845 0.000000 0.455829
0.644486 0.000000 0.451013
0.779124 0.000000 0.446197
0.915757 0.000000 0.441381
0.005325 0.144383 0.458892
0.133340 0.144079 0.454076
0.263351 0.143776 0.449260
0.395357 0.143472 0.444444
0.529360 0.143168 0.439628
0.665358 0.142865 0.434812
0.803353 0.142561 0.429996
0.943343 0.142257 0.425180
0.009411 0.289076 0.442690
0.140784 0.288772 0.437874
0.274152 0.288468 0.433058
0.409515 0.288165 0.428242
0.546875 0.287861 0.423426
0.686231 0.287557 0.418610
0.827582 0.287253 0.413794
0.970929 0.286950 0.408978
0.013498 0.433768 0.426489
0.148228 0.433465 0.421673
0.284953 0.433161 0.416857
0.423673 0.432857 0.412041
0.564390 0.432553 0.407225
0.707103 0.432250 0.402409
0.851811 0.431946 0.397593
0.998515 0.431642 0.392777
0.017585 0.578461 0.410287
0.155671 0.578157 0.405471
0.295754 0.577853 0.400655
0.437832 0.577550 0.395839
0.581905 0.577246 0.391023
0.727975 0.576942 0.386207
0.876040 0.576639 0.381391
1.000000 0.576335 0.376575
0.021672 0.723153 0.394086
0.163115 0.722850 0.389270
0.306555 0.722546 0.384454
0.451990 0.722242 0.379638
0.599420 0.721939 0.374822
0.748847 0.721635 0.370006
0.900270 0.721331 0.365190
1.000000 0.721027 0.360374
0.025759 0.867846 0.377885
0.170559 0.867542 0.373068
0.317356 0.867239 0.368252
0.466148 0.866935 0.363436
0.616936 0.866631 0.358620
0.769719 0.866327 0.353804
0.924499 0.866024 0.348988
1.000000 0.865720 0.344172
0.029846 1.000000 0.361683
0.178003 1.000000 0.356867
0.328156 1.000000 0.352051
0.480306 1.000000 0.347235
0.634451 1.000000 0.342419
0.790591 1.000000 0.337603
0.948728 1.000000 0.332787
1.000000 1.000000 0.327971
0.001650 0.000000 0.631690
0.126647 0.000000 0.625572
0.253640 0.000000 0.619454
0.382629 0.000000 0.613337
0.513613 0.000000 0.607219
0.646593 0.000000 0.601101
0.781569 0.000000 0.594984
0.918541 0.000000 0.588866
0.005737 0.144280 0.611109
0.134091 0.143976 0.604992
0.264441 0.143673 0.598874
0.396787 0.143369 0.592756
0.531128 0.143065 0.586639
0.667466 0.142761 0.580521
0.805799 0.142458 0.574403
0.946128 0.142154 0.568286
0.009824 0.288973 0.590529
0.141535 0.288669 0.584411
0.275242 0.288365 0.578294
0.410945 0.288061 0.572176
0.548643 0.287758 0.566058
0.688338 0.287454 0.559941
0.830028 0.287150 0.553823
0.973714 0.286847 0.547705
0.013911 0.433665 0.569949
0.148979 0.433361 0.563831
0.286043 0.433058 0.557714
0.425103 0.432754 0.551596
0.566158 0.432450 0.545478
0.709210 0.432147 0.539361
0.854257 0.431843 0.533243
1.000000 0.431539 0.527125
0.017998 0.578358 0.549369
0.156423 0.578054 0.543251
0.296844 0.577750 0.537133
0.439261 0.577447 0.531016
0.583673 0.577143 0.524898
0.730082 0.576839 0.518780
0.878486 0.576535 0.512663
1.000000 0.576232 0.506545
0.022085 0.723050 0.528788
0.163867 0.722747 0.522671
0.307645 0.722443 0.516553
0.453419 0.722139 0.510435
0.601189 0.721835 0.504318
0.750954 0.721532 0.498200
0.902716 0.721228 0.492082
1.000000 0.720924 0.485965
0.026171 0.867743 0.508208
0.171311 0.867439 0.502090
0.318446 0.867135 0.495973
0.467577 0.866832 0.489855
0.618704 0.866528 0.483737
0.771826 0.866224 0.477620
0.926945 0.865921 0.471502
1.000000 0.865617 0.465384
0.030258 1.000000 0.487628
0.178755 1.000000 0.481510
0.329247 1.000000 0.475393
0.481735 1.000000 0.469275
0.636219 1.000000 0.463157
0.792698 1.000000 0.457040
0.951174 1.000000 0.450922
1.000000 1.000000 0.444804
0.002063 0.000000 0.787402
0.127399 0.000000 0.779983
0.254730 0.000000 0.772563
0.384058 0.000000 0.765144
0.515381 0.000000 0.757725
0.648700 0.000000 0.750305
0.784015 0.000000 0.742886
0.921326 0.000000 0.735467
0.006150 0.144177 0.762443
0.134843 0.143873 0.755024
0.265531 0.143569 0.747604
0.398216 0.143266 0.740185
0.532896 0.142962 0.732766
0.669573 0.142658 0.725346
0.808245 0.142355 0.717927
0.948913 0.142051 0.710508
0.010237 0.288869 0.737484
0.142287 0.288566 0.730064
0.276332 0.288262 0.722645
0.412374 0.287958 0.715226
0.550411 0.287655 0.707807
0.690445 0.287351 0.700387
0.832474 0.287047 0.692968
0.976499 0.286743 0.685549
0.014323 0.433562 0.712525
0.149730 0.433258 0.705105
0.287133 0.432955 0.697686
0.426532 0.432651 0.690267
0.567927 0.432347 0.682848
0.711317 0.432043 0.675428
0.856703 0.431740 0.668009
1.000000 0.431436 0.660590
0.018410 0.578255 0.687566
0.157174 0.577951 0.680146
0.297934 0.577647 0.672727
0.440690 0.577343 0.665308
0.585442 0.577040 0.657889
0.732189 0.576736 0.650469
0.880932 0.576432 0.643050
1.000000 0.576129 0.635631
0.022497 0.722947 0.662607
0.164618 0.722643 0.655187
0.308735 0.722340 0.647768
0.454848 0.722036 0.640349
0.602957 0.721732 0.632930
0.753061 0.721429 0.625510
0.905162 0.721125 0.618091
1.000000 0.720821 0.610672
0.026584 0.867640 0.637648
0.172062 0.867336 0.630228
0.319536 0.867032 0.622809
0.469006 0.866729 0.615390
0.620472 0.866425 0.607970
0.773933 0.866121 0.600551
0.929391 0.865817 0.593132
1.000000 0.865514 0.585713
0.030671 1.000000 0.612689
0.179506 1.000000 0.605269
0.330337 1.000000 0.597850
0.483164 1.000000 0.590431
0.637987 1.000000 0.583011
0.794806 1.000000 0.575592
0.953620 1.000000 0.568173
1.000000 1.000000 0.560754
0.002475 0.000000 0.942230
0.128150 0.000000 0.933509
0.255821 0.000000 0.924788
0.385487 0.000000 0.916067
0.517149 0.000000 0.907346
0.650807 0.000000 0.898625
0.786461 0.000000 0.889904
0.924111 0.000000 0.881183
0.006562 0.144074 0.912892
0.135594 0.143770 0.904171
0.266622 0.143466 0.895450
0.399645 0.143163 0.886729
0.534664 0.142859 0.878008
0.671680 0.142555 0.869287
0.810691 0.142251 0.860567
0.951697 0.141948 0.851846
0.010649 0.288766 0.883554
0.143038 0.288463 0.874833
0.277423 0.288159 0.866112
0.413803 0.287855 0.857392
0.552180 0.287551 0.848671
0.692552 0.287248 0.839950
0.834920 0.286944 0.831229
0.979284 0.286640 0.822508
0.014736 0.433459 0.854217
0.150482 0.433155 0.845496
0.288224 0.432851 0.836775
0.427961 0.432548 0.828054
0.569695 0.432244 0.819333
0.713424 0.431940 0.810612
0.859149 0.431637 0.801891
1.000000 0.431333 0.793170
0.018823 0.578151 0.824879
0.157926 0.577848 0.816158
0.299025 0.577544 0.807437
0.442119 0.577240 0.798716
0.587210 0.576937 0.789995
0.734296 0.576633 0.781274
0.883378 0.576329 0.772553
1.000000 0.576025 0.763832
0.022910 0.722844 0.795541
0.165370 0.722540 0.786820
0.309826 0.722237 0.778099
0.456277 0.721933 0.769378
0.604725 0.721629 0.760657
0.755168 0.721325 0.751936
0.907608 0.721022 0.743215
1.000000 0.720718 0.734494
0.026997 0.867537 0.766203
0.172814 0.867233 0.757482
0.320627 0.866929 0.748761
0.470435 0.866625 0.740040
0.622240 0.866322 0.731319
0.776040 0.866018 0.722598
0.931837 0.865714 0.713878
1.000000 0.865411 0.705157
0.031083 1.000000 0.736865
0.180258 1.000000 0.728144
0.331428 1.000000 0.719424
0.484593 1.000000 0.710703
0.639755 1.000000 0.701982
0.796913 1.000000 0.693261
0.956066 1.000000 0.684540
1.000000 1.000000 0.675819
0.002888 0.000000 1.000000
0.128902 0.000000 1.000000
0.256911 0.000000 1.000000
0.386916 0.000000 1.000000
0.518918 0.000000 1.000000
0.652915 0.000000 1.000000
0.788907 0.000000 1.000000
0.926896 0.000000 1.000000
0.006975 0.143971 1.000000
0.136346 0.143667 1.000000
0.267712 0.143363 1.000000
0.401074 0.143059 1.000000
0.536433 0.142756 1.000000
0.673787 0.142452 1.000000
0.813137 0.142148 1.000000
0.954482 0.141845 0.992299
0.011062 0.288663 1.000000
0.143789 0.288359 1.000000
0.278513 0.288056 1.000000
0.415232 0.287752 0.998673
0.553948 0.287448 0.988651
0.694659 0.287145 0.978628
0.837366 0.286841 0.968605
0.982069 0.286537 0.958583
0.015149 0.433356 0.995024
0.151233 0.433052 0.985002
0.289314 0.432748 0.974979
0.429391 0.432445 0.964957
0.571463 0.432141 0.954934
0.715531 0.431837 0.944911
0.861595 0.431533 0.934889
1.000000 0.431230 0.924866
0.019235 0.578048 0.961308
0.158677 0.577745 0.951285
0.300115 0.577441 0.941263
0.443549 0.577137 0.931240
0.588978 0.576833 0.921217
0.736403 0.576530 0.911195
0.885824 0.576226 0.901172
1.000000 0.575922 0.891150
0.023322 0.722741 0.927591
0.166121 0.722437 0.917569
0.310916 0.722133 0.907546
0.457707 0.721830 0.897523
0.606493 0.721526 0.887501
0.757275 0.721222 0.877478
0.910053 0.720919 0.867456
1.000000 0.720615 0.857433
0.027409 0.867433 0.893875
0.173565 0.867130 0.883852
0.321717 0.866826 0.873829
0.471865 0.866522 0.863807
0.624008 0.866219 0.853784
0.778148 0.865915 0.843762
0.934283 0.865611 0.833739
1.000000 0.865307 0.823717
0.031496 1.000000 0.860158
0.181009 1.000000 0.850135
0.332518 1.000000 0.840113
0.486023 1.000000 0.830090
0.641523 1.000000 0.820068
0.799020 1.000000 0.810045
0.958512 1.000000 0.800023
1.000000 1.000000 0.790000
