assets/luts/warm_tone.cube
TITLE "Warm Tone - Orange/Yellow Tint"
DOMAIN_MIN 0.0 0.0 0.0
DOMAIN_MAX 1.0 1.0 1.0
LUT_3D_SIZE 8

0.030000 0.010000 0.000000
0.184286 0.010000 0.000000
0.338571 0.010000 0.000000
0.492857 0.010000 0.000000
0.647143 0.010000 0.000000
0.801429 0.010000 0.000000
0.955714 0.010000 0.000000
1.000000 0.010000 0.000000
0.030000 0.155714 0.000000
0.184286 0.155714 0.000000
0.338571 0.155714 0.000000
0.492857 0.155714 0.000000
0.647143 0.155714 0.000000
0.801429 0.155714 0.000000
0.955714 0.155714 0.000000
1.000000 0.155714 0.000000
0.030000 0.301429 0.000000
0.184286 0.301429 0.000000
0.338571 0.301429 0.000000
0.492857 0.301429 0.000000
0.647143 0.301429 0.000000
0.801429 0.301429 0.000000
0.955714 0.301429 0.000000
1.000000 0.301429 0.000000
0.030000 0.447143 0.000000
0.184286 0.447143 0.000000
0.338571 0.447143 0.000000
0.492857 0.447143 0.000000
0.647143 0.447143 0.000000
0.801429 0.447143 0.000000
0.955714 0.447143 0.000000
1.000000 0.447143 0.000000
0.030000 0.592857 0.000000
0.184286 0.592857 0.000000
0.338571 0.592857 0.000000
0.492857 0.592857 0.000000
0.647143 0.592857 0.000000
0.801429 0.592857 0.000000
0.955714 0.592857 0.000000
1.000000 0.592857 0.000000
0.030000 0.738571 0.000000
0.184286 0.738571 0.000000
0.338571 0.738571 0.000000
0.492857 0.738571 0.000000
0.647143 0.738571 0.000000
0.801429 0.738571 0.000000
0.955714 0.738571 0.000000
1.000000 0.738571 0.000000
0.030000 0.884286 0.000000
0.184286 0.884286 0.000000
0.338571 0.884286 0.000000
0.492857 0.884286 0.000000
0.647143 0.884286 0.000000
0.801429 0.884286 0.000000
0.955714 0.884286 0.000000
1.000000 0.884286 0.000000
0.030000 1.000000 0.000000
0.184286 1.000000 0.000000
0.338571 1.000000 0.000000
0.492857 1.000000 0.000000
0.647143 1.000000 0.000000
0.801429 1.000000 0.000000
0.955714 1.000000 0.000000
1.000000 1.000000 0.000000
0.030000 0.010000 0.105714
0.184286 0.010000 0.105714
0.338571 0.010000 0.105714
0.492857 0.010000 0.105714
0.647143 0.010000 0.105714
0.801429 0.010000 0.105714
0.955714 0.010000 0.105714
1.000000 0.010000 0.105714
0.030000 0.155714 0.105714
0.184286 0.155714 0.105714
0.338571 0.155714 0.105714
0.492857 0.155714 0.105714
0.647143 0.155714 0.105714
0.801429 0.155714 0.105714
0.955714 0.155714 0.105714
1.000000 0.155714 0.105714
0.030000 0.301429 0.105714
0.184286 0.301429 0.105714
0.338571 0.301429 0.105714
0.492857 0.301429 0.105714
0.647143 0.301429 0.105714
0.801429 0.301429 0.105714
0.955714 0.301429 0.105714
1.000000 0.301429 0.105714
0.030000 0.447143 0.105714
0.184286 0.447143 0.105714
0.338571 0.447143 0.105714
0.492857 0.447143 0.105714
0.647143 0.447143 0.105714
0.801429 0.447143 0.105714
0.955714 0.447143 0.105714
1.000000 0.447143 0.105714
0.030000 0.592857 0.105714
0.184286 0.592857 0.105714
0.338571 0.592857 0.105714
0.492857 0.592857 0.105714
0.647143 0.592857 0.105714
0.801429 0.592857 0.105714
0.955714 0.592857 0.105714
1.000000 0.592857 0.105714
0.030000 0.738571 0.105714
0.184286 0.738571 0.105714
0.338571 0.738571 0.105714
0.492857 0.738571 0.105714
0.647143 0.738571 0.105714
0.801429 0.738571 0.105714
0.955714 0.738571 0.105714
1.000000 0.738571 0.105714
0.030000 0.884286 0.105714
0.184286 0.884286 0.105714
0.338571 0.884286 0.105714
0.492857 0.884286 0.105714
0.647143 0.884286 0.105714
0.801429 0.884286 0.105714
0.955714 0.884286 0.105714
1.000000 0.884286 0.105714
0.030000 1.000000 0.105714
0.184286 1.000000 0.105714
0.338571 1.000000 0.105714
0.492857 1.000000 0.105714
0.647143 1.000000 0.105714
0.801429 1.000000 0.105714
0.955714 1.000000 0.105714
1.000000 1.000000 0.105714
0.030000 0.010000 0.231429
0.184286 0.010000 0.231429
0.338571 0.010000 0.231429
0.492857 0.010000 0.231429
0.647143 0.010000 0.231429
0.801429 0.010000 0.231429
0.955714 0.010000 0.231429
1.000000 0.010000 0.231429
0.030000 0.155714 0.231429
0.184286 0.155714 0.231429
0.338571 0.155714 0.231429
0.492857 0.155714 0.231429
0.647143 0.155714 0.231429
0.801429 0.155714 0.231429
0.955714 0.155714 0.231429
1.000000 0.155714 0.231429
0.030000 0.301429 0.231429
0.184286 0.301429 0.231429
0.338571 0.301429 0.231429
0.492857 0.301429 0.231429
0.647143 0.301429 0.231429
0.801429 0.301429 0.231429
0.955714 0.301429 0.231429
1.000000 0.301429 0.231429
0.030000 0.447143 0.231429
0.184286 0.447143 0.231429
0.338571 0.447143 0.231429
0.492857 0.447143 0.231429
0.647143 0.447143 0.231429
0.801429 0.447143 0.231429
0.955714 0.447143 0.231429
1.000000 0.447143 0.231429
0.030000 0.592857 0.231429
0.184286 0.592857 0.231429
0.338571 0.592857 0.231429
0.492857 0.592857 0.231429
0.647143 0.592857 0.231429
0.801429 0.592857 0.231429
0.955714 0.592857 0.231429
1.000000 0.592857 0.231429
0.030000 0.738571 0.231429
0.184286 0.738571 0.231429
0.338571 0.738571 0.231429
0.492857 0.738571 0.231429
0.647143 0.738571 0.231429
0.801429 0.738571 0.231429
0.955714 0.738571 0.231429
1.000000 0.738571 0.231429
0.030000 0.884286 0.231429
0.184286 0.884286 0.231429
0.338571 0.884286 0.231429
0.492857 0.884286 0.231429
0.647143 0.884286 0.231429
0.801429 0.884286 0.231429
0.955714 0.884286 0.231429
1.000000 0.884286 0.231429
0.030000 1.000000 0.231429
0.184286 1.000000 0.231429
0.338571 1.000000 0.231429
0.492857 1.000000 0.231429
0.647143 1.000000 0.231429
0.801429 1.000000 0.231429
0.955714 1.000000 0.231429
1.000000 1.000000 0.231429
0.030000 0.010000 0.357143
0.184286 0.010000 0.357143
0.338571 0.010000 0.357143
0.492857 0.010000 0.357143
0.647143 0.010000 0.357143
0.801429 0.010000 0.357143
0.955714 0.010000 0.357143
1.000000 0.010000 0.357143
0.030000 0.155714 0.357143
0.184286 0.155714 0.357143
0.338571 0.155714 0.357143
0.492857 0.155714 0.357143
0.647143 0.155714 0.357143
0.801429 0.155714 0.357143
0.955714 0.155714 0.357143
1.000000 0.155714 0.357143
0.030000 0.301429 0.357143
0.184286 0.301429 0.357143
0.338571 0.301429 0.357143
0.492857 0.301429 0.357143
0.647143 0.301429 0.357143
0.801429 0.301429 0.357143
0.955714 0.301429 0.357143
1.000000 0.301429 0.357143
0.030000 0.447143 0.357143
0.184286 0.447143 0.357143
0.338571 0.447143 0.357143
0.492857 0.447143 0.357143
0.647143 0.447143 0.357143
0.801429 0.447143 0.357143
0.955714 0.447143 0.357143
1.000000 0.447143 0.357143
0.030000 0.592857 0.357143
0.184286 0.592857 0.357143
0.338571 0.592857 0.357143
0.492857 0.592857 0.357143
0.647143 0.592857 0.357143
0.801429 0.592857 0.357143
0.955714 0.592857 0.357143
1.000000 0.592857 0.357143
0.030000 0.738571 0.357143
0.184286 0.738571 0.357143
0.338571 0.738571 0.357143
0.492857 0.738571 0.357143
0.647143 0.738571 0.357143
0.801429 0.738571 0.357143
0.955714 0.738571 0.357143
1.000000 0.738571 0.357143
0.030000 0.884286 0.357143
0.184286 0.884286 0.357143
0.338571 0.884286 0.357143
0.492857 0.884286 0.357143
0.647143 0.884286 0.357143
0.801429 0.884286 0.357143
0.955714 0.884286 0.357143
1.000000 0.884286 0.357143
0.030000 1.000000 0.357143
0.184286 1.000000 0.357143
0.338571 1.000000 0.357143
0.492857 1.000000 0.357143
0.647143 1.000000 0.357143
0.801429 1.000000 0.357143
0.955714 1.000000 0.357143
1.000000 1.000000 0.357143
0.030000 0.010000 0.482857
0.184286 0.010000 0.482857
0.338571 0.010000 0.482857
0.492857 0.010000 0.482857
0.647143 0.010000 0.482857
0.801429 0.010000 0.482857
0.955714 0.010000 0.482857
1.000000 0.010000 0.482857
0.030000 0.155714 0.482857
0.184286 0.155714 0.482857
0.338571 0.155714 0.482857
0.492857 0.155714 0.482857
0.647143 0.155714 0.482857
0.801429 0.155714 0.482857
0.955714 0.155714 0.482857
1.000000 0.155714 0.482857
0.030000 0.301429 0.482857
0.184286 0.301429 0.482857
0.338571 0.301429 0.482857
0.492857 0.301429 0.482857
0.647143 0.301429 0.482857
0.801429 0.301429 0.482857
0.955714 0.301429 0.482857
1.000000 0.301429 0.482857
0.030000 0.447143 0.482857
0.184286 0.447143 0.482857
0.338571 0.447143 0.482857
0.492857 0.447143 0.482857
0.647143 0.447143 0.482857
0.801429 0.447143 0.482857
0.955714 0.447143 0.482857
1.000000 0.447143 0.482857
0.030000 0.592857 0.482857
0.184286 0.592857 0.482857
0.338571 0.592857 0.482857
0.492857 0.592857 0.482857
0.647143 0.592857 0.482857
0.801429 0.592857 0.482857
0.955714 0.592857 0.482857
1.000000 0.592857 0.482857
0.030000 0.738571 0.482857
0.184286 0.738571 0.482857
0.338571 0.738571 0.482857
0.492857 0.738571 0.482857
0.647143 0.738571 0.482857
0.801429 0.738571 0.482857
0.955714 0.738571 0.482857
1.000000 0.738571 0.482857
0.030000 0.884286 0.482857
0.184286 0.884286 0.482857
0.338571 0.884286 0.482857
0.492857 0.884286 0.482857
0.647143 0.884286 0.482857
0.801429 0.884286 0.482857
0.955714 0.884286 0.482857
1.000000 0.884286 0.482857
0.030000 1.000000 0.482857
0.184286 1.000000 0.482857
0.338571 1.000000 0.482857
0.492857 1.000000 0.482857
0.647143 1.000000 0.482857
0.801429 1.000000 0.482857
0.955714 1.000000 0.482857
1.000000 1.000000 0.482857
0.030000 0.010000 0.608571
0.184286 0.010000 0.608571
0.338571 0.010000 0.608571
0.492857 0.010000 0.608571
0.647143 0.010000 0.608571
0.801429 0.010000 0.608571
0.955714 0.010000 0.608571
1.000000 0.010000 0.608571
0.030000 0.155714 0.608571
0.184286 0.155714 0.608571
0.338571 0.155714 0.608571
0.492857 0.155714 0.608571
0.647143 0.155714 0.608571
0.801429 0.155714 0.608571
0.955714 0.155714 0.608571
1.000000 0.155714 0.608571
0.030000 0.301429 0.608571
0.184286 0.301429 0.608571
0.338571 0.301429 0.608571
0.492857 0.301429 0.608571
0.647143 0.301429 0.608571
0.801429 0.301429 0.608571
0.955714 0.301429 0.608571
1.000000 0.301429 0.608571
0.030000 0.447143 0.608571
0.184286 0.447143 0.608571
0.338571 0.447143 0.608571
0.492857 0.447143 0.608571
0.647143 0.447143 0.608571
0.801429 0.447143 0.608571
0.955714 0.447143 0.608571
1.000000 0.447143 0.608571
0.030000 0.592857 0.608571
0.184286 0.592857 0.608571
0.338571 0.592857 0.608571
0.492857 0.592857 0.608571
0.647143 0.592857 0.608571
0.801429 0.592857 0.608571
0.955714 0.592857 0.608571
1.000000 0.592857 0.608571
0.030000 0.738571 0.608571
0.184286 0.738571 0.608571
0.338571 0.738571 0.608571
0.492857 0.738571 0.608571
0.647143 0.738571 0.608571
0.801429 0.738571 0.608571
0.955714 0.738571 0.608571
1.000000 0.738571 0.608571
0.030000 0.884286 0.608571
0.184286 0.884286 0.608571
0.338571 0.884286 0.608571
0.492857 0.884286 0.608571
0.647143 0.884286 0.608571
0.801429 0.884286 0.608571
0.955714 0.884286 0.608571
1.000000 0.884286 0.608571
0.030000 1.000000 0.608571
0.184286 1.000000 0.608571
0.338571 1.000000 0.608571
0.492857 1.000000 0.608571
0.647143 1.000000 0.608571
0.801429 1.000000 0.608571
0.955714 1.000000 0.608571
1.000000 1.000000 0.608571
0.030000 0.010000 0.734286
0.184286 0.010000 0.734286
0.338571 0.010000 0.734286
0.492857 0.010000 0.734286
0.647143 0.010000 0.734286
0.801429 0.010000 0.734286
0.955714 0.010000 0.734286
1.000000 0.010000 0.734286
0.030000 0.155714 0.734286
0.184286 0.155714 0.734286
0.338571 0.155714 0.734286
0.492857 0.155714 0.734286
0.647143 0.155714 0.734286
0.801429 0.155714 0.734286
0.955714 0.155714 0.734286
1.000000 0.155714 0.734286
0.030000 0.301429 0.734286
0.184286 0.301429 0.734286
0.338571 0.301429 0.734286
0.492857 0.301429 0.734286
0.647143 0.301429 0.734286
0.801429 0.301429 0.734286
0.955714 0.301429 0.734286
1.000000 0.301429 0.734286
0.030000 0.447143 0.734286
0.184286 0.447143 0.734286
0.338571 0.447143 0.734286
0.492857 0.447143 0.734286
0.647143 0.447143 0.734286
0.801429 0.447143 0.734286
0.955714 0.447143 0.734286
1.000000 0.447143 0.734286
0.030000 0.592857 0.734286
0.184286 0.592857 0.734286
0.338571 0.592857 0.734286
0.492857 0.592857 0.734286
0.647143 0.592857 0.734286
0.801429 0.592857 0.734286
0.955714 0.592857 0.734286
1.000000 0.592857 0.734286
0.030000 0.738571 0.734286
0.184286 0.738571 0.734286
0.338571 0.738571 0.734286
0.492857 0.738571 0.734286
0.647143 0.738571 0.734286
0.801429 0.738571 0.734286
0.955714 0.738571 0.734286
1.000000 0.738571 0.734286
0.030000 0.884286 0.734286
0.184286 0.884286 0.734286
0.338571 0.884286 0.734286
0.492857 0.884286 0.734286
0.647143 0.884286 0.734286
0.801429 0.884286 0.734286
0.955714 0.884286 0.734286
1.000000 0.884286 0.734286
0.030000 1.000000 0.734286
0.184286 1.000000 0.734286
0.338571 1.000000 0.734286
0.492857 1.000000 0.734286
0.647143 1.000000 0.734286
0.801429 1.000000 0.734286
0.955714 1.000000 0.734286
1.000000 1.000000 0.734286
0.030000 0.010000 0.860000
0.184286 0.010000 0.860000
0.338571 0.010000 0.860000
0.492857 0.010000 0.860000
0.647143 0.010000 0.860000
0.801429 0.010000 0.860000
0.955714 0.010000 0.860000
1.000000 0.010000 0.860000
0.030000 0.155714 0.860000
0.184286 0.155714 0.860000
0.338571 0.155714 0.860000
0.492857 0.155714 0.860000
0.647143 0.155714 0.860000
0.801429 0.155714 0.860000
0.955714 0.155714 0.860000
1.000000 0.155714 0.860000
0.030000 0.301429 0.860000
0.184286 0.301429 0.860000
0.338571 0.301429 0.860000
0.492857 0.301429 0.860000
0.647143 0.301429 0.860000
0.801429 0.301429 0.860000
0.955714 0.301429 0.860000
1.000000 0.301429 0.860000
0.030000 0.447143 0.860000
0.184286 0.447143 0.860000
0.338571 0.447143 0.860000
0.492857 0.447143 0.860000
0.647143 0.447143 0.860000
0.801429 0.447143 0.860000
0.955714 0.447143 0.860000
1.000000 0.447143 0.860000
0.030000 0.592857 0.860000
0.184286 0.592857 0.860000
0.338571 0.592857 0.860000
0.492857 0.592857 0.860000
0.647143 0.592857 0.860000
0.801429 0.592857 0.860000
0.955714 0.592857 0.860000
1.000000 0.592857 0.860000
0.030000 0.738571 0.860000
0.184286 0.738571 0.860000
0.338571 0.738571 0.860000
0.492857 0.738571 0.860000
0.647143 0.738571 0.860000
0.801429 0.738571 0.860000
0.955714 0.738571 0.860000
1.000000 0.738571 0.860000
0.030000 0.884286 0.860000
0.184286 0.884286 0.860000
0.338571 0.884286 0.860000
0.492857 0.884286 0.860000
0.647143 0.884286 0.860000
0.801429 0.884286 0.860000
0.955714 0.884286 0.860000
1.000000 0.884286 0.860000
0.030000 1.000000 0.860000
0.184286 1.000000 0.860000
0.338571 1.000000 0.860000
0.492857 1.000000 0.860000
0.647143 1.000000 0.860000
0.801429 1.000000 0.860000
0.955714 1.000000 0.860000
1.000000 1.000000 0.860000
